X:192
T:Over the Water
M:6/8
L:1/8
B:Thompson's Compleat Collection of 200 Favourite Country Dances, vol. 1 (London, 1757)
Z:Transcribed and edited by Flynn Titford-Mock, 2007
Z:abc's:AK/Fiddler's Companion
K:F
c2c c2d|ABG FAB|cdc cAc|d3 f3|F2F FGA|B2A G2F|fed cAc|d3 f3:|
|:f2g a2b|gaf gec|f2g aba|g3 c3|f2g aba|gaf gec|(d/e/f)d cAc|d3 f3:|

